!!!OTL: Die wiedergefundene Schwester (Suedeli - Ballade) Ha Maruska pjesacku 'rajese
!!!ARE: Europa, Mitteleuropa, Deutschland (), Lausitz, Wenden
!!!YOR: 4, S. 32
!!    1841 gedruckt in Grimma
!!!SCT: Q2072I
!!!YEM: Copyright 1995, estate of Helmut Schaffrath.
**kern
*ICvox
*Ivox
*M3/4
*k[f#]
*G:
{4g
=1
4b
4b
4cc
=2
4dd
4dd
4ee
=3
2ffn
4ee
=4
2dd}
{4dd
=5
4cc
8b
8a
4g
=6
4dd
4a
4g
=7
4a
4f#
8d
16e
16f#
=8
2g}
{4dd
=9
4cc
8b
8a
8b
8cc
=10
4dd
4b
4g
=11
4a
8f#
8d
8e
8f#
=12
4g
4r}
==
!!!AGN: Ballade, Entfuehrung, Adelige als Dienstmagd, Rueckkehr
!! Wendische Fassung der Ballade.
!!!ONB: ESAC (Essen Associative Code) Database: BALLADE
!!!AMT: simple triple
!!!AIN: vox
!!!EED: Helmut Schaffrath
!!!EEV: 1.0
*-
